svg/gas_station_off_outline.svg

<svg xmlns="http://www.w3.org/2000/svg" viewBox="0 0 24 24"><path d="M1 4.27 2.28 3 6 6.72l15 15L19.73 23l-2.01-2a2.57 2.57 0 0 1-2.22-2.22L14 17.27V21H4V7.27zm18.77 2.96c.45.45.73 1.08.73 1.77v9.67L19 17.18v-5.89c-.31.13-.64.21-1 .21A2.5 2.5 0 0 1 15.5 9c0-1.07.67-1.97 1.61-2.33L15 4.56l1.06-1.06 3.72 3.72zM11.82 10H12V5H6.82L5.06 3.24c.28-.15.6-.24.94-.24h6c1.1 0 2 .9 2 2v7h1c1.1 0 2 .9 2 2v1.18zM6 10h.73L6 9.27zm0 2v7h6v-3.73L8.73 12zm12-2c.55 0 1-.45 1-1s-.45-1-1-1-1 .45-1 1 .45 1 1 1"/></svg>

<?xml version="1.0" encoding="UTF-8"?><!DOCTYPE svg PUBLIC "-//W3C//DTD SVG 1.1//EN" "http://www.w3.org/Graphics/SVG/1.1/DTD/svg11.dtd"><svg xmlns="http://www.w3.org/2000/svg" xmlns:xlink="http://www.w3.org/1999/xlink" version="1.1" id="mdi-gas-station-off-outline" width="24" height="24" viewBox="0 0 24 24"><path d="M1 4.27L2.28 3L6 6.72L21 21.72L19.73 23L17.72 21C16.56 20.85 15.65 19.94 15.5 18.78L14 17.27V21H4V7.27L1 4.27M19.77 7.23C20.22 7.68 20.5 8.31 20.5 9L20.5 18.67L19 17.18V11.29C18.69 11.42 18.36 11.5 18 11.5C16.62 11.5 15.5 10.38 15.5 9C15.5 7.93 16.17 7.03 17.11 6.67L15 4.56L16.06 3.5L19.78 7.22L19.77 7.23M11.82 10H12V5H6.82L5.06 3.24C5.34 3.09 5.66 3 6 3H12C13.1 3 14 3.9 14 5V12H15C16.1 12 17 12.9 17 14V15.18L11.82 10M6 10H6.73L6 9.27V10M6 12V19H12V15.27L8.73 12H6M18 10C18.55 10 19 9.55 19 9C19 8.45 18.55 8 18 8C17.45 8 17 8.45 17 9C17 9.55 17.45 10 18 10Z" /></svg>
